X: 525
T: Tear the calico
C: anon.
O: Ireland
B: Francis O'Neill: "The Dance Music of Ireland" (1907) no. 525
R: Reel
Z: Transcribed by Frank Nordberg - http://www.musicaviva.com
F: http://www.musicaviva.com/abc/tunes/ireland/oneill-1001/oneill-1001-052
5.abc
M: C|
L: 1/8
K: G
GE (3EEE (BA)BG|AGEG A(cBA)|GEEE cABG|AFGE D2D2|G>E (3EEE (cA)BG|AGEG A2(
Bc)|dBcA BGAF|GEDE G2G2||
BddB cABG|AGEG A2(Ac)|BddB cABG|AFGE D2D2|BddB cABG|AGEG A2A2|BddB cABG|A
GAB c2(BA)||
G2(BG) G2(BG)|AGEG AcBA|G2(BG) G2(BG)|AFGE D2D2|G2(BG) G2(BG)|AGEG AcBA|d
BcA BGAF|GEDE G2G2|]
W:
W:
W: From Musica Viva - http://www.musicaviva.com
W: the Internet center for free sheet music downloads.


